X: 7
T: Missa Ave regina celorum / Gloria
N: Derived from Obr1002b-Missa_Ave_regina_celorum-Gloria.krn
C: Jacob Obrecht
%%abc-version 2.0
%%abcx-abcm2ps-target-version 5.9.1 (29 Sep 2008)
%%abc-creator hum2abc beta
%%abcx-conversion-date 2019/02/17 07:23:44
%%abc-edited-by Jesse Rodin
%%abc-edited-by Jesse Rodin 8/27/2013
%%abcx-initial-encoding-date 2013/08/27/
%%humdrum-veritas 1977583488
%%humdrum-veritas-data 4026832487
%%linebreak <none>
%%barnumbers 0
L: 1/4
M: 3/1
Q: 1/2=120
%%staves [1 2 3 4]
V: 1 clef=treble
V: 2 clef=treble-8
V: 3 clef=treble-8
V: 4 clef=bass
K: F
[V:1] c8c4- | 
[V:2] f12 | 
[V:3] z12 | 
[V:4] z12 | 
[V:1] c2A4F2F4 | 
[V:2] f6d4B2 | 
[V:3] z12 | 
[V:4] z12 | 
[V:1] G2B2A2G2F4 | 
[V:2] B4c2_e2d3c | 
[V:3] z12 | 
[V:4] z12 | 
[V:1] z2G2(3A2B2c2(3B2A2G2 | 
[V:2] B4z2c2d2e2 | 
[V:3] z12 | 
[V:4] z12 | 
[V:1] A12 | 
[V:2] f12 | 
[V:3] c8c4- | 
[V:4] F,12 | 
[V:1] z12 | 
[V:2] z12 | 
[V:3] c2A4F2F4 | 
[V:4] F,6D,4B,,2 | 
[V:1] z12 | 
[V:2] z12 | 
[V:3] G2B2A2G2F4 | 
[V:4] B,,4C,2_E,2D,3C, | 
[V:1] z12 | 
[V:2] z12 | 
[V:3] z2G2(3A2B2c2(3B2A2G2 | 
[V:4] B,,4z2C,2D,2E,2 | 
[V:1] z2c4c4B2- | 
[V:2] f4f4e4 | 
[V:3] A8z4 | 
[V:4] F,8z4 | 
[V:1] B2A4G2F2E2 | 
[V:2] d4c3BA2G2 | 
[V:3] z12 | 
[V:4] z12 | 
[V:1] A2G3FF4E2 | 
[V:2] F2E2A4G4 | 
[V:3] z12 | 
[V:4] z12 | 
[V:1] F12 | 
[V:2] FGABc2d3Bc2 | 
[V:3] z12 | 
[V:4] F,3G,A,2B,4A,2 | 
[V:1] z2G4A2B2AG | 
[V:2] d2e2c2f4e2 | 
[V:3] z12 | 
[V:4] F,2C3B,A,2G,4 | 
[V:1] A3Bc2d3cBA | 
[V:2] f2edc2B2d4 | 
[V:3] f8f4 | 
[V:4] F,6D,6 | 
[V:1] G3AB2c3BAG | 
[V:2] B4G4c4 | 
[V:3] _e8_e4 | 
[V:4] _E,6C,6 | 
[V:1] F3GA2B3AGF | 
[V:2] A4F4B4 | 
[V:3] d8d4 | 
[V:4] D,6B,,6 | 
[V:1] E3FG2A3GFE | 
[V:2] G4E4A4 | 
[V:3] c8c4 | 
[V:4] C,6A,,6 | 
[V:1] D3EF2G3FED | 
[V:2] F4D4G4 | 
[V:3] B8B4 | 
[V:4] B,,6G,,6 | 
[V:1] C3DE2F3EDC | 
[V:2] E4C4F4 | 
[V:3] A8A4 | 
[V:4] A,,6F,,6 | 
[V:1] B,3CD2_E3DCB, | 
[V:2] D4B,4_E4 | 
[V:3] G8G4 | 
[V:4] G,,6_E,,6 | 
[V:1] A,3B,C2D2E2C2- | 
[V:2] C2c4B2G4 | 
[V:3] F4F4E4 | 
[V:4] F,,3G,,A,,2B,,2C,4 | 
[V:1] C2F2E2F4E2 | 
[V:2] F2c4B2c4 | 
[V:3] A6F2G4 | 
[V:4] F,,G,,A,,B,,C,2D,2C,4 | 
[V:1] F4z2F3GAB | 
[V:2] A3Bc2d2c2f2 | 
[V:3] F12 | 
[V:4] F,,12 | 
[V:1] c3BAGB3AGF | 
[V:2] e2f3edc_e3d | 
[V:3] z12 | 
[V:4] z12 | 
[V:1] A3GFEG3FE2 | 
[V:2] cBd3cBAc4 | 
[V:3] z12 | 
[V:4] z12 | 
[V:1] D4z4D4 | 
[V:2] B2d4c4=B2 | 
[V:3] z12 | 
[V:4] G,6E,2D,4 | 
[V:1] E4F4G3A | 
[V:2] c2A4d4^c2 | 
[V:3] c6A2G4 | 
[V:4] C,4F,4E,4 | 
[V:1] B2A2F2G2A4 | 
[V:2] d8D4 | 
[V:3] F4B4A4 | 
[V:4] D,4z2G,4^F,2 | 
[V:1] B2G3FE2D4 | 
[V:2] d4B2c2G2g2- | 
[V:3] G4z2c4=B2 | 
[V:4] G,4z4z4 | 
[V:1] C2c4=B2c4 | 
[V:2] g2e2d4c2f2- | 
[V:3] c4z4z4 | 
[V:4] z12 | 
[V:1] A2G2A2B4A2 | 
[V:2] f2e2f2d3Bc2 | 
[V:3] z4z4G2A2 | 
[V:4] D,2E,2D,2G,4F,2 | 
[V:1] D2E3CDFECc2- | 
[V:2] B2AG2F/E/F2G2A2 | 
[V:3] G2c4=B2c4 | 
[V:4] G,2C,2E,2D,2C,4 | 
[V:1] cBA2G2A3GF2- | 
[V:2] F4E2D2F4 | 
[V:3] z2c4F3GA2 | 
[V:4] z12 | 
[V:1] F2E2F4z4 | 
[V:2] C4c2A2B2c2 | 
[V:3] G4F4z2c2 | 
[V:4] z4z4G,2E,2 | 
[V:1] F2D2E2F2G2E2 | 
[V:2] z4z2F2ECc2 | 
[V:3] A2B2c8 | 
[V:4] F,2G,2z4z4 | 
[V:1] F2G2z2G2A2c2 | 
[V:2] AB2c2d2BA3F | 
[V:3] z2G2A2B2c4 | 
[V:4] D,2E,2F,2G,2z4 | 
[V:1] BG2FG2A2D3E | 
[V:2] GBA2Gc2AB3c | 
[V:3] z12 | 
[V:4] z2D,2E,2F,2G,3F, | 
[V:1] F2G4FEF2ED | 
[V:2] d2_e3dBcd4 | 
[V:3] z4z2G2A2B2 | 
[V:4] D,2C,2_E,4D,4 | 
[V:1] E3FG2A4GF | 
[V:2] A4B2c4A2 | 
[V:3] c3BG2F2A4 | 
[V:4] z4z4z2F,2 | 
[V:1] G3AB2c2d4 | 
[V:2] B3cd2e2f4- | 
[V:3] G4z4z2B2 | 
[V:4] E,2G,3F,E,2D,4 | 
[V:1] c2BAG2F2G3A | 
[V:2] f2_e3dc2B2c2 | 
[V:3] A2c3BA2G2E2 | 
[V:4] z4z4z2C,2 | 
[V:1] B2A3GF4E2 | 
[V:2] d2c4B2c4 | 
[V:3] F2E2F4G4 | 
[V:4] B,,2C,2D,4C,4 | 
[V:1] F12 ||  
[V:2] c12 ||  
[V:3] F12 ||  
[V:4] F,,12 ||  
[V:1]  [K:F] [K:clef=treble][M:2/1]z8 | 
[V:2]  [K:F] [K:clef=treble-8][M:2/1]F6G2 | 
[V:3]  [K:F] [K:clef=treble-8][M:2/1]z8 | 
[V:4]  [K:F] [K:clef=bass][M:2/1]z8 | 
[V:1] z8 | 
[V:2] A4B4 | 
[V:3] z8 | 
[V:4] z8 | 
[V:1] F6G2 | 
[V:2] A2B4AG | 
[V:3] z8 | 
[V:4] z8 | 
[V:1] A4B4 | 
[V:2] F2A2G4 | 
[V:3] z8 | 
[V:4] z8 | 
[V:1] A2B4AG | 
[V:2] z2G4B2 | 
[V:3] z8 | 
[V:4] z8 | 
[V:1] F2A2G4 | 
[V:2] A2c4BA | 
[V:3] z8 | 
[V:4] z8 | 
[V:1] z2G4B2 | 
[V:2] B2c2G4 | 
[V:3] z8 | 
[V:4] z8 | 
[V:1] A2c4BA | 
[V:2] z2A4GF | 
[V:3] z8 | 
[V:4] z8 | 
[V:1] B2c2G4 | 
[V:2] G2A2B4 | 
[V:3] z8 | 
[V:4] z8 | 
[V:1] z2A4GF | 
[V:2] A4z2c2- | 
[V:3] z8 | 
[V:4] z8 | 
[V:1] G2A2B4 | 
[V:2] cBA2G4 | 
[V:3] z8 | 
[V:4] z8 | 
[V:1] A4z2c2- | 
[V:2] F3ED2C2- | 
[V:3] z8 | 
[V:4] z8 | 
[V:1] cBA2G4 | 
[V:2] C2F4E2 | 
[V:3] z8 | 
[V:4] z8 | 
[V:1] F3ED2C2- | 
[V:2] F2A2B2c2- | 
[V:3] z8 | 
[V:4] z8 | 
[V:1] C2F4E2 | 
[V:2] c2BAG4 | 
[V:3] z8 | 
[V:4] z8 | 
[V:1] F4z4 | 
[V:2] z2F2G2A2- | 
[V:3] z8 | 
[V:4] F,,2A,,2B,,2C,2- | 
[V:1] z8 | 
[V:2] AGF4E2 | 
[V:3] z8 | 
[V:4] C,2A,,2G,,4 | 
[V:1] F3ED2C2- | 
[V:2] F4z4 | 
[V:3] z8 | 
[V:4] F,,2F,2G,2A,2- | 
[V:1] CB,A,2G,4 | 
[V:2] z4z2C2 | 
[V:3] z8 | 
[V:4] A,G,F,4E,2 | 
[V:1] z8 | 
[V:2] D3EFGA2 | 
[V:3] z8 | 
[V:4] F,3E,D,2C,2- | 
[V:1] z4G4 | 
[V:2] G2F4E2 | 
[V:3] z8 | 
[V:4] C,B,,A,,2G,,4 | 
[V:1] A2A2c4 | 
[V:2] F2f4e2 | 
[V:3] z8 | 
[V:4] F,,4z4 | 
[V:1] B2A2G2B2 | 
[V:2] d2c2_e2d2- | 
[V:3] z8 | 
[V:4] z8 | 
[V:1] A4G2F2 | 
[V:2] d2c2B2d2 | 
[V:3] z8 | 
[V:4] z8 | 
[V:1] A2G4F2 | 
[V:2] c4B2A2 | 
[V:3] z8 | 
[V:4] z8 | 
[V:1] E2G2F4 | 
[V:2] c2B4A2 | 
[V:3] z8 | 
[V:4] z8 | 
[V:1] E2D2F2E2- | 
[V:2] G2B2A4 | 
[V:3] z8 | 
[V:4] z8 | 
[V:1] E2D2C2E2 | 
[V:2] G2F2A2G2- | 
[V:3] z8 | 
[V:4] z8 | 
[V:1] D2C4=B,2 | 
[V:2] GFE2D4 | 
[V:3] z8 | 
[V:4] z8 | 
[V:1] C4C3D | 
[V:2] z2C3DEF | 
[V:3] z8 | 
[V:4] z8 | 
[V:1] E2C2D2E2 | 
[V:2] G2A2F2G2 | 
[V:3] z8 | 
[V:4] z8 | 
[V:1] F2D2E2F2 | 
[V:2] A2B2G2A2 | 
[V:3] z8 | 
[V:4] z8 | 
[V:1] G3FEDC2 | 
[V:2] B2c3BAG | 
[V:3] z8 | 
[V:4] z8 | 
[V:1] F2E2A2G2 | 
[V:2] F2c3ded/e/ | 
[V:3] z8 | 
[V:4] z8 | 
[V:1] A3GFEF2 | 
[V:2] f2F3GAG/A/ | 
[V:3] z8 | 
[V:4] z8 | 
[V:1] G2F4E2 | 
[V:2] B2F2G4 | 
[V:3] z8 | 
[V:4] z8 | 
[V:1] F4z4 | 
[V:2] F2A3Bc2 | 
[V:3] z8 | 
[V:4] z2F,3G,A,G,/A,/ | 
[V:1] z8 | 
[V:2] d2f4e2 | 
[V:3] z8 | 
[V:4] B,2F,2G,4 | 
[V:1] z2A3GE2- | 
[V:2] f3ed2c2 | 
[V:3] z8 | 
[V:4] F,4z2C,2- | 
[V:1] EFG2F2G2- | 
[V:2] z2C2D2E2 | 
[V:3] z8 | 
[V:4] C,D,E,D,/E,/F,2C,2 | 
[V:1] GFF4E2 | 
[V:2] F4G4 | 
[V:3] z8 | 
[V:4] D,4C,4 | 
[V:1] F8 ||  
[V:2] F8 ||  
[V:3] z8 ||  
[V:4] F,,8 ||  
[V:1]  [K:F] [K:clef=treble][M:2/1]G8 | 
[V:2]  [K:F] [K:clef=treble-8][M:2/1]c8 | 
[V:3]  [K:F] [K:clef=treble-8][M:2/1]z8 | 
[V:4]  [K:F] [K:clef=bass][M:2/1]z8 | 
[V:1] G4G4 | 
[V:2] B4c4 | 
[V:3] z8 | 
[V:4] z8 | 
[V:1] F4B4- | 
[V:2] d8 | 
[V:3] z8 | 
[V:4] z8 | 
[V:1] B2A2A4- | 
[V:2] d4c4 | 
[V:3] z8 | 
[V:4] z8 | 
[V:1] A4G4 | 
[V:2] B8 | 
[V:3] z8 | 
[V:4] z8 | 
[V:1] A8 | 
[V:2] A8- | 
[V:3] c8- | 
[V:4] z4F,4- | 
[V:1] z4c4- | 
[V:2] A8 | 
[V:3] c8 | 
[V:4] F,8- | 
[V:1] c2A2A4- | 
[V:2] z4f4- | 
[V:3] A8 | 
[V:4] F,4D,4- | 
[V:1] A2F2F4 | 
[V:2] f2d2d4- | 
[V:3] F8 | 
[V:4] D,4B,,4- | 
[V:1] z2D2E3F | 
[V:2] d4c4 | 
[V:3] G8- | 
[V:4] B,,4C,4 | 
[V:1] GAG4FE | 
[V:2] B4c4 | 
[V:3] G8 | 
[V:4] _E,6D,C, | 
[V:1] D4F4- | 
[V:2] F4z2d2- | 
[V:3] B6AG | 
[V:4] B,,8 | 
[V:1] F2E2D2F2- | 
[V:2] d2c2B2AG | 
[V:3] F8 | 
[V:4] z4B,,4 | 
[V:1] FED2C2B,2 | 
[V:2] F4z4 | 
[V:3] z4G4 | 
[V:4] D,4E,4 | 
[V:1] A,4A4- | 
[V:2] c8 | 
[V:3] A6B2 | 
[V:4] F,8- | 
[V:1] A4c4- | 
[V:2] A6GF | 
[V:3] c8 | 
[V:4] F,8- | 
[V:1] c2A2A4 | 
[V:2] c8- | 
[V:3] f8 | 
[V:4] F,8- | 
[V:1] z2A4d2- | 
[V:2] c4A4 | 
[V:3] f8 | 
[V:4] F,8 | 
[V:1] d2cBcBAG | 
[V:2] A8 | 
[V:3] e8 | 
[V:4] z8 | 
[V:1] F4B4- | 
[V:2] z4G4- | 
[V:3] d8- | 
[V:4] B,8 | 
[V:1] B2c2d4- | 
[V:2] G2A2B4 | 
[V:3] d8 | 
[V:4] B,8 | 
[V:1] d2c2c4- | 
[V:2] c3de2f2 | 
[V:3] z8 | 
[V:4] A,8 | 
[V:1] c4=B4 | 
[V:2] g2fed4 | 
[V:3] z8 | 
[V:4] G,8 | 
[V:1] c2A4G2 | 
[V:2] c4z2d2 | 
[V:3] c6B2 | 
[V:4] z8 | 
[V:1] A4z4 | 
[V:2] c2d3cc2- | 
[V:3] A4G4 | 
[V:4] F,6E,2 | 
[V:1] z2D2E2G2 | 
[V:2] c2=B2c4- | 
[V:3] F4E4 | 
[V:4] D,4C,4 | 
[V:1] F4E2F2- | 
[V:2] c4z2c2- | 
[V:3] A4G2A2- | 
[V:4] z8 | 
[V:1] F2EDE4 | 
[V:2] c2BAB2c2 | 
[V:3] A2GFG4 | 
[V:4] z8 | 
[V:1] F8 | 
[V:2] d2cBcBAG | 
[V:3] F8 | 
[V:4] B,,4A,,2D,2- | 
[V:1] z4C4 | 
[V:2] F2B4A2 | 
[V:3] z8 | 
[V:4] D,2C,B,,C,4 | 
[V:1] D3EF2G2- | 
[V:2] B4d4 | 
[V:3] z8 | 
[V:4] B,,8 | 
[V:1] G2E4A2- | 
[V:2] c4z2F2- | 
[V:3] z4c4- | 
[V:4] z8 | 
[V:1] A2G4F2- | 
[V:2] F2E2F4 | 
[V:3] c4A4 | 
[V:4] z8 | 
[V:1] F2EDE4 | 
[V:2] C4z4 | 
[V:3] G8 | 
[V:4] z8 | 
[V:1] F4z2A2- | 
[V:2] c4d2c2- | 
[V:3] F8- | 
[V:4] z4F,4- | 
[V:1] AGFEF2D2 | 
[V:2] cBAGF2B2- | 
[V:3] F8 | 
[V:4] F,4D,4 | 
[V:1] E2G4FE | 
[V:2] B2AGA4 | 
[V:3] z8 | 
[V:4] C,8 | 
[V:1] D4z2G2- | 
[V:2] B2AGF2G2 | 
[V:3] B8 | 
[V:4] B,,8 | 
[V:1] G2FEF4 | 
[V:2] D4z2A2 | 
[V:3] A8 | 
[V:4] z8 | 
[V:1] G6FE | 
[V:2] B4G4 | 
[V:3] G4c4- | 
[V:4] _E,8 | 
[V:1] F2D2F4 | 
[V:2] d8 | 
[V:3] c4=B4 | 
[V:4] D,8 | 
[V:1] E6F2 | 
[V:2] G6A2 | 
[V:3] c8 | 
[V:4] C,4z2F,2- | 
[V:1] G4C4 | 
[V:2] B4A2c2 | 
[V:3] G4A4 | 
[V:4] F,2E,2F,4 | 
[V:1] D4E4- | 
[V:2] B4A4- | 
[V:3] G4c4- | 
[V:4] z8 | 
[V:1] E2DCF4 | 
[V:2] A2G4F2 | 
[V:3] c4B4 | 
[V:4] C,4D,4 | 
[V:1] E2C2G4 | 
[V:2] A4G4 | 
[V:3] c8- | 
[V:4] C,2F,4E,2 | 
[V:1] A2c3BA2 | 
[V:2] F2A3Bc2 | 
[V:3] c8 | 
[V:4] F,8 | 
[V:1] G2B4AG | 
[V:2] B2d4cB | 
[V:3] z8 | 
[V:4] B,,8 | 
[V:1] F2D2E4 | 
[V:2] A2B4A2 | 
[V:3] z4c4 | 
[V:4] D,4C,4 | 
[V:1] D4z2D2 | 
[V:2] B3AF2f2- | 
[V:3] F8 | 
[V:4] B,,8 | 
[V:1] F4G4 | 
[V:2] fec2d2e2 | 
[V:3] A4G4 | 
[V:4] z8 | 
[V:1] A6GF | 
[V:2] f4c4 | 
[V:3] F8 | 
[V:4] z4F,4 | 
[V:1] B2A4G2 | 
[V:2] z8 | 
[V:3] z4c4 | 
[V:4] D,4E,4 | 
[V:1] A4F2G2- | 
[V:2] c4d2cB | 
[V:3] A4B4 | 
[V:4] F,4z4 | 
[V:1] GFF4E2 | 
[V:2] A2F2G4 | 
[V:3] c8 | 
[V:4] z4C,4 | 
[V:1] F4z2G2 | 
[V:2] F4C4 | 
[V:3] z4G4 | 
[V:4] D,4E,4 | 
[V:1] F2A4G2- | 
[V:2] z2c2d2cB | 
[V:3] A4B4 | 
[V:4] F,4z4 | 
[V:1] GFF4E2 | 
[V:2] A4G4 | 
[V:3] c4z4 | 
[V:4] z4C,4 | 
[V:1] F4G4 | 
[V:2] F4z2c2- | 
[V:3] z8 | 
[V:4] D,4E,4 | 
[V:1] A4F2G2- | 
[V:2] cBAGA2G2 | 
[V:3] z8 | 
[V:4] F,6E,2 | 
[V:1] GFEDC4 | 
[V:2] c4z4 | 
[V:3] z4G4 | 
[V:4] C,4E,4 | 
[V:1] z4D4 | 
[V:2] F8 | 
[V:3] A4B4 | 
[V:4] D,8 | 
[V:1] E8 | 
[V:2] G4G3A | 
[V:3] c6B2 | 
[V:4] C,8 | 
[V:1] D4G4- | 
[V:2] B4G4 | 
[V:3] G4B4 | 
[V:4] z8 | 
[V:1] G4^F4 | 
[V:2] D8 | 
[V:3] A8 | 
[V:4] z8 | 
[V:1] G6D2 | 
[V:2] z8 | 
[V:3] G4B4 | 
[V:4] z8 | 
[V:1] F4E2A2- | 
[V:2] D4C2F2- | 
[V:3] A4c4- | 
[V:4] z8 | 
[V:1] A2G2A2GF | 
[V:2] F2E2F4 | 
[V:3] c4A4 | 
[V:4] z8 | 
[V:1] E4z2E2 | 
[V:2] C4z2c2 | 
[V:3] G8 | 
[V:4] z4E,4 | 
[V:1] F2EDC2F2- | 
[V:2] d2cBA2d2- | 
[V:3] z8 | 
[V:4] D,4F,4- | 
[V:1] FGA4GF | 
[V:2] dcc4=B2 | 
[V:3] z4F4 | 
[V:4] F,4D,4 | 
[V:1] A2G2A2F2- | 
[V:2] c8 | 
[V:3] E4F4 | 
[V:4] C,4z4 | 
[V:1] F2EDE4 | 
[V:2] C8 | 
[V:3] G8 | 
[V:4] z8 | 
[V:1] F8- | 
[V:2] c4d4 | 
[V:3] F8- | 
[V:4] z4B,,4 | 
[V:1] F8 | 
[V:2] c4B4- | 
[V:3] F8 | 
[V:4] A,,4B,,4 | 
[V:1] z8 | 
[V:2] B4A4 | 
[V:3] z8 | 
[V:4] C,8 | 
[V:1] z4F4 | 
[V:2] B4z2B2- | 
[V:3] z8 | 
[V:4] B,,8 | 
[V:1] D2E2F4 | 
[V:2] B2G2A2B2- | 
[V:3] z8 | 
[V:4] z8 | 
[V:1] D2G4E2 | 
[V:2] B2G2c4 | 
[V:3] z8 | 
[V:4] z8 | 
[V:1] F2G4E2- | 
[V:2] A2B2c4 | 
[V:3] z8 | 
[V:4] z8 | 
[V:1] E2A4F2 | 
[V:2] A4d4 | 
[V:3] z8 | 
[V:4] z8 | 
[V:1] G2A3GF2 | 
[V:2] B2c2d4 | 
[V:3] z8 | 
[V:4] z8 | 
[V:1] E2F4ED | 
[V:2] c2A2B4 | 
[V:3] z8 | 
[V:4] z8 | 
[V:1] C4c4- | 
[V:2] A8- | 
[V:3] z8 | 
[V:4] F,8- | 
[V:1] c2B2A4- | 
[V:2] A8 | 
[V:3] z8 | 
[V:4] F,8 | 
[V:1] A4G4 | 
[V:2] z8 | 
[V:3] z8 | 
[V:4] B,8 | 
[V:1] A8 | 
[V:2] F8 | 
[V:3] c8- | 
[V:4] A,4F,4- | 
[V:1] G8 | 
[V:2] C8 | 
[V:3] c8 | 
[V:4] F,4E,4 | 
[V:1] A6GF | 
[V:2] c8- | 
[V:3] f8 | 
[V:4] F,8 | 
[V:1] A2G2E2G2- | 
[V:2] c8 | 
[V:3] e4c4- | 
[V:4] z8 | 
[V:1] G2FED4 | 
[V:2] G4z2G2 | 
[V:3] c4B4 | 
[V:4] z8 | 
[V:1] C2F4E2 | 
[V:2] A2F2G4 | 
[V:3] c8 | 
[V:4] z4C,4 | 
[V:1] F2A3GFE | 
[V:2] F2f3ec2- | 
[V:3] z8 | 
[V:4] D,4F,4- | 
[V:1] F2ED^C4 | 
[V:2] c2BAG4 | 
[V:3] z8 | 
[V:4] F,4E,4 | 
[V:1] D8 | 
[V:2] A2F4B2 | 
[V:3] z8 | 
[V:4] D,4B,,4 | 
[V:1] z8 | 
[V:2] G2c2A2d2- | 
[V:3] z8 | 
[V:4] C,4D,4 | 
[V:1] z8 | 
[V:2] d2cBc4 | 
[V:3] z4G4 | 
[V:4] _E,8 | 
[V:1] F6E2 | 
[V:2] d2cBA4- | 
[V:3] A4c4- | 
[V:4] D,4z4 | 
[V:1] F2A4G2 | 
[V:2] A2F2G4 | 
[V:3] c4B4 | 
[V:4] z8 | 
[V:1] F2A3GFE | 
[V:2] D2F3GA2 | 
[V:3] A4F4 | 
[V:4] z8 | 
[V:1] D2B4A2- | 
[V:2] B4c4 | 
[V:3] G4A4 | 
[V:4] z8 | 
[V:1] A2GFG4 | 
[V:2] d4d2_e2- | 
[V:3] B8 | 
[V:4] G,4G,3F, | 
[V:1] A4z4 | 
[V:2] edd4c2 | 
[V:3] A4z4 | 
[V:4] F,2D,2E,4 | 
[V:1] F2GAB2A2- | 
[V:2] d4z2D2 | 
[V:3] d4d4 | 
[V:4] D,4z4 | 
[V:1] AGFED2G2- | 
[V:2] F4G4 | 
[V:3] c2A2B4 | 
[V:4] z4z2B,,2 | 
[V:1] G2F2G3F | 
[V:2] A4G2B2- | 
[V:3] A4z4 | 
[V:4] C,2D,2_E,3D, | 
[V:1] D3EF2C2- | 
[V:2] BAF3GAB | 
[V:3] z8 | 
[V:4] B,,3C,D,E,F,2- | 
[V:1] C2D2E4 | 
[V:2] c2B2c4 | 
[V:3] z2F2G2A2 | 
[V:4] F,E,D,2C,4 | 
[V:1] D2F3EC2- | 
[V:2] F4z4 | 
[V:3] B3AF3G | 
[V:4] B,,4z4 | 
[V:1] CDEFG2F2- | 
[V:2] z8 | 
[V:3] ABc4A2 | 
[V:4] z8 | 
[V:1] F2E2F2A2- | 
[V:2] z2G2A3B | 
[V:3] G4F4 | 
[V:4] z4z2F,2- | 
[V:1] A2G2A4 | 
[V:2] cde2c2f2- | 
[V:3] z4z2c2- | 
[V:4] F,2E,2F,4 | 
[V:1] B4A2A2- | 
[V:2] f2e2f4 | 
[V:3] c2B2c4 | 
[V:4] G,4F,4 | 
[V:1] A2G2A4 | 
[V:2] z4z2f2 | 
[V:3] d4c4 | 
[V:4] B,4A,2F,2 | 
[V:1] z8 | 
[V:2] e2d2c2B2- | 
[V:3] z8 | 
[V:4] G,2B,2A,2G,2- | 
[V:1] z2A,2B,4 | 
[V:2] BAF2G4 | 
[V:3] z8 | 
[V:4] G,F,F,4E,2 | 
[V:1] A,2D3CB,2- | 
[V:2] F4D4 | 
[V:3] z4f4 | 
[V:4] F,2B,,3C,D,2 | 
[V:1] B,2A,2B,4 | 
[V:2] E4F3G | 
[V:3] e2c2d2f2 | 
[V:4] C,4B,,4 | 
[V:1] z2B,4C2 | 
[V:2] A2G2A4 | 
[V:3] e2d3cc2- | 
[V:4] z8 | 
[V:1] D4C2D2 | 
[V:2] G4z2A2- | 
[V:3] c2=B2c2F2- | 
[V:4] z8 | 
[V:1] C2F4E2 | 
[V:2] A2c4B2 | 
[V:3] FGA2G4 | 
[V:4] z8 | 
[V:1] F2A4G2 | 
[V:2] c4B4 | 
[V:3] F4z4 | 
[V:4] z2F,2D,2E,2 | 
[V:1] A6GF | 
[V:2] A2F3ED2 | 
[V:3] z2c2A2B2 | 
[V:4] F,4z4 | 
[V:1] E2C2F2E2 | 
[V:2] C2c2A2c2- | 
[V:3] c4z2G2 | 
[V:4] z2C,2D,2E,2 | 
[V:1] C2c3BAG | 
[V:2] cBAGF2c2 | 
[V:3] A3Bc4 | 
[V:4] F,4z2C,2 | 
[V:1] F2E2C2c2- | 
[V:2] A2c3BAG | 
[V:3] z2G2A3B | 
[V:4] D,2E,2F,4 | 
[V:1] cBA4G2 | 
[V:2] A4B4 | 
[V:3] c4z4 | 
[V:4] z2C,2D,2E,2 | 
[V:1] A2GFE2C2 | 
[V:2] z2A3GG2 | 
[V:3] z4z2G2 | 
[V:4] F,3E,C,2E,2 | 
[V:1] F4E4 | 
[V:2] A2F2G3A | 
[V:3] A2B2c3B | 
[V:4] D,4C,4 | 
[V:1] z2G4F2 | 
[V:2] Bcd2c4 | 
[V:3] G2B2A4 | 
[V:4] z8 | 
[V:1] G2E2F2ED | 
[V:2] z2c2d2cB | 
[V:3] G4z4 | 
[V:4] z2E,2D,2F,2- | 
[V:1] C2D2E4 | 
[V:2] A2B4A2 | 
[V:3] z8 | 
[V:4] F,E,D,2C,4 | 
[V:1] DEFGA4 | 
[V:2] B2AGF4 | 
[V:3] z2B2A2c2- | 
[V:4] B,,4z4 | 
[V:1] G2F4E2 | 
[V:2] z2F2B4 | 
[V:3] cBA2G4 | 
[V:4] z8 | 
[V:1] F4z2F2 | 
[V:2] A2d2c2B2 | 
[V:3] F4z4 | 
[V:4] z2B,,2A,,2B,,2 | 
[V:1] E2G3FD2 | 
[V:2] G3AB4 | 
[V:3] z4z2F2 | 
[V:4] C,4B,,4 | 
[V:1] C2F4E2 | 
[V:2] z4c4 | 
[V:3] E2F2G4 | 
[V:4] z2F,,2C,4 | 
[V:1] [M:3/1]F8F4 | 
[V:2] [M:3/1]c4A4F4 | 
[V:3] [M:3/1]F4A4B4 | 
[V:4] [M:3/1]F,,4F,4D,4 | 
[V:1] E4F4G4 | 
[V:2] G4A4G4 | 
[V:3] c6d2e4 | 
[V:4] C,4F,4E,4 | 
[V:1] A8A4 | 
[V:2] F6G2A2B2 | 
[V:3] f6e2c4 | 
[V:4] D,4F,6E,2 | 
[V:1] G8G4 | 
[V:2] c4B6A2 | 
[V:3] e4d6c2 | 
[V:4] C,4G,,4C,4 | 
[V:1] E4F8 | 
[V:2] G8F4 | 
[V:3] c8=B4 | 
[V:4] E,4D,8 | 
[V:1] E4C4D4 | 
[V:2] G4A4B4 | 
[V:3] c4A4F4 | 
[V:4] C,4F,4D,4 | 
[V:1] E4G6F2 | 
[V:2] c4_e4d4 | 
[V:3] c8F4- | 
[V:4] C,8B,,4 | 
[V:1] F8E4 | 
[V:2] B4c8 | 
[V:3] F4G8 | 
[V:4] D,4C,8 | 
[V:1] F12 |]  
[V:2] c12 |]  
[V:3] F12 |]  
[V:4] F,,12 |]  



